X: 1112
T: Amongst Friends
R: reel
M: 4/4
K: Dmajor
A2|d2 d2 cBAG|F2 EF D2 EF|G2 B2 efed|c2 Bc A2
Bc|d2 g2 fedc|d2 F2 GABG|A2 d2 F2 E>D|D4 D2:|
fg|a2 d2 bagf|f2 ef d2 ef|g2 B2 efed|c2 Bc A2
Bc|d2 d2 cBAG|F2 D2- D2 EF|G2 B2 efed|c2 A2- A2
Bc|d2 g2 fedc|d2 F2 GABG|A2 d2 F2 E>D|D4 D2:|

